!!!COM:	Ockeghem, Johannes
!!!CDT:	~1425-1497/02/06
!!!OPR:	Missa Prolationum
!!!ONM:	5
!!!OTL:	Agnus Dei
!!!AGN:	Mass; Agnus Dei
!!!SCT:	Ock1011e
!!!SCA:	Ock1011e
!!!voices:	4
!!!voices-OPR:	4
**kern	**text	**kern	**text	**kern	**text	**kern	**text
*staff4	*staff4	*staff3	*staff3	*staff2	*staff2	*staff1	*staff1
*Ivox	*	*Ivox	*	*Ivox	*	*Ivox	*
*I"Contra2	*	*I"Contra1	*	*I"Discantus2	*	*I"Discantus1	*
*I'C2	*	*I'C1	*	*I'D2	*	*I'D1	*
*>[A,B,C]	*>[A,B,C]	*>[A,B,C]	*>[A,B,C]	*>[A,B,C]	*>[A,B,C]	*>[A,B,C]	*>[A,B,C]
*>A	*>A	*>A	*>A	*>A	*>A	*>A	*>A
*clefF4	*	*clefGv2	*	*clefGv2	*	*clefG2	*
*k[]	*	*k[b-]	*	*k[]	*	*k[b-]	*
*M3/1	*	*M3/1	*	*M3/1	*	*M3/1	*
*met(O)	*	*met(O)	*	*met(O)	*	*met(O)	*
!!incipt: 3
=1-	=1-	=1-	=1-	=1-	=1-	=1-	=1-
!LO:TX:X=-40:Z=8:t=Comes	!	!LO:TX:X=-40:Z=8:t=Dux	!	!LO:TX:X=-40:Z=8:t=Comes	!	!LO:TX:X=-40:Z=8:t=Dux	!
0.r	.	1.f	Ag-	0.r	.	1.f	Ag-
.	.	2d\	.	.	.	2g/	.
.	.	1c	.	.	.	1a	.
=2	=2	=2	=2	=2	=2	=2	=2
0.r	.	2B-\	.	0.r	.	1b-	.
.	.	2G/	.	.	.	.	.
.	.	1F	.	.	.	2a/	.
.	.	.	.	.	.	1f	.
.	.	2.B-\	.	.	.	.	.
.	.	.	.	.	.	2g/	.
.	.	4c\	.	.	.	.	.
=3	=3	=3	=3	=3	=3	=3	=3
0.r	.	2.d\	.	0.r	.	2f/	.
.	.	.	.	.	.	2d/	.
.	.	8c\L	.	.	.	.	.
.	.	8B-\J	.	.	.	.	.
.	.	2A/	.	.	.	2.f/	.
.	.	1B-	.	.	.	.	.
.	.	.	.	.	.	8e/L	.
.	.	.	.	.	.	8d/J	.
.	.	.	.	.	.	1c	.
.	.	2A/	.	.	.	.	.
=4	=4	=4	=4	=4	=4	=4	=4
0.r	.	0B-	-nus	0.r	.	1B-	-nus
.	.	.	.	.	.	2r	.
.	.	.	.	.	.	2f/	De-
.	.	2.B-\	De-	.	.	2g/	.
.	.	.	.	.	.	2b-\	.
.	.	4c\	.	.	.	.	.
=5	=5	=5	=5	=5	=5	=5	=5
0.r	.	1d	.	0.r	.	2a/	.
.	.	.	.	.	.	2f/	.
.	.	1c	.	.	.	2.g/	.
.	.	.	.	.	.	8f/L	.
.	.	.	.	.	.	8g/J	.
.	.	1F	.	.	.	1a	.
=6	=6	=6	=6	=6	=6	=6	=6
0.r	.	1.E-	.	0.r	.	2b-\	.
.	.	.	.	.	.	2.cc\	.
.	.	.	.	.	.	4b-\	.
.	.	2F/	.	.	.	4a/	.
.	.	.	.	.	.	4g/	.
.	.	2.G/	.	.	.	2.b-\	.
.	.	4A/	.	.	.	4a/	.
=7	=7	=7	=7	=7	=7	=7	=7
0.r	.	1B-	.	0.r	.	2f/	.
.	.	.	.	.	.	2.g/	.
.	.	1F	.	.	.	.	.
.	.	.	.	.	.	4f/	.
.	.	.	.	.	.	1f	.
.	.	1G	.	.	.	.	.
.	.	.	.	.	.	2e/	.
=8	=8	=8	=8	=8	=8	=8	=8
1.c	Ag-	0F	-i	1.c	Ag-	2.f/	.
.	.	.	.	.	.	4g/	.
.	.	.	.	.	.	1a	.
2A\	.	.	.	2d\	.	.	.
1G	.	2r	.	1e	.	1b-	.
.	.	2G/	qui	.	.	.	.
=9	=9	=9	=9	=9	=9	=9	=9
2F\	.	2A/	.	1f	.	1a	-i
2D\	.	2B-\	.	.	.	.	.
1C	.	1c	tol-	2e\	.	2r	.
.	.	.	.	1c	.	2g/	qui
2.F\	.	1F	-lis	.	.	2.a/	.
.	.	.	.	2d\	.	.	.
4G\	.	.	.	.	.	4b-\	.
=10	=10	=10	=10	=10	=10	=10	=10
2.A\	.	2r	.	2c\	.	2.cc\	tol-
.	.	2F/	pec-	2A/	-nus	.	.
8G\L	.	.	.	.	.	8b-/L	.
8F\J	.	.	.	.	.	8a/J	.
2E\	-nus	2G/	-ca-	2.c\	De-	2g/	.
1F	De-	2A/	.	.	.	2f/	.
.	.	.	.	8B/L	.	.	.
.	.	.	.	8A/J	.	.	.
.	.	2B-\	.	1G	.	1g	.
2E\	.	2c\	.	.	.	.	.
=11	=11	=11	=11	=11	=11	=11	=11
0F	-i	2A/	.	1F	-i	0a	-lis
.	.	1d	.	.	.	.	.
.	.	.	.	2r	.	.	.
.	.	2c\	.	2c\	qui	.	.
2.F\	qui	2A/	.	2d\	.	1r	.
.	.	2B-\	.	2f\	.	.	.
4G\	.	.	.	.	.	.	.
=12	=12	=12	=12	=12	=12	=12	=12
1A	tol-	1c	.	2e\	tol-	0.r	.
.	.	.	.	2c\	.	.	.
1G	.	1B-	.	2.d\	.	.	.
.	.	.	.	8c\L	.	.	.
.	.	.	.	8d\J	.	.	.
1C	.	1c	.	1e	.	.	.
=13	=13	=13	=13	=13	=13	=13	=13
1.BB-	.	2d\	.	2f\	.	0.r	.
.	.	1B-	.	2.g\	.	.	.
.	.	.	.	4f\	.	.	.
2C/	.	4A/	.	4e\	.	.	.
.	.	4G/	.	4d\	.	.	.
2.D\	.	1F	-ta	2.f\	.	.	.
4E\	.	.	.	4e\	.	.	.
=14	=14	=14	=14	=14	=14	=14	=14
1F	.	2r	.	2c\	.	0.r	.
.	.	2A/	mun-	2.d\	.	.	.
1C	.	2G/	.	.	.	.	.
.	.	.	.	4c\	.	.	.
.	.	2E/	.	1c	.	.	.
1D	.	1F	.	.	.	.	.
.	.	.	.	2B\	.	.	.
=15	=15	=15	=15	=15	=15	=15	=15
0C	-lis	1G	.	2.c\	.	1g	pec-
.	.	.	.	4d\	.	.	.
.	.	1c	.	1e	.	2a/	-ca-
.	.	.	.	.	.	2g/	-ta
2r	.	2B-\	.	1f	.	2r	.
2D\	pec-	2A/	.	.	.	2f/	mun-
=16	=16	=16	=16	=16	=16	=16	=16
2E\	-ca-	2G/	.	1e	-lis	2g/	.
2F\	.	1c	.	.	.	2e/	.
1G	.	.	.	2r	.	1d	.
.	.	2Bni\	.	2d\	pec-	.	.
1C	-ta	[1c	-di	2.e\	-ca-	1c	.
.	.	.	.	4f\	.	.	.
=17	=17	=17	=17	=17	=17	=17	=17
2r	.	1c]	.	2.g\	.	1e	.
2C/	mun-	.	.	.	.	.	.
.	.	.	.	8f\L	.	.	.
.	.	.	.	8e\J	.	.	.
2D\	.	2r	.	2d\	.	2f/	.
2E\	.	2.c\	mi-	2c\	.	2g/	.
2F\	.	.	.	1d	.	2a/	.
.	.	4A/	.	.	.	.	.
2G\	.	2B-\	.	.	.	[2g/	.
=18	=18	=18	=18	=18	=18	=18	=18
2E\	.	1c	.	0e	-ta	2g/]	.
1A	.	.	.	.	.	1cc	.
.	.	2A/	.	.	.	.	.
2G\	.	2B-\	.	.	.	2b-\	.
2E\	.	2c\	.	1r	.	2g/	.
2F\	.	2F/	.	.	.	2a/	.
=19	=19	=19	=19	=19	=19	=19	=19
1G	.	2r	.	0.r	.	2b-\	.
.	.	2B-\	.	.	.	2g/	.
1F	.	2c\	.	.	.	1a	.
.	.	2A/	.	.	.	.	.
1G	.	2B-\	.	.	.	2.g/	.
.	.	2G/	.	.	.	.	.
.	.	.	.	.	.	4e/	.
=20	=20	=20	=20	=20	=20	=20	=20
2A\	.	2F/	.	0.r	.	2f/	.
1F	.	2f\	.	.	.	1a	.
.	.	2d\	.	.	.	.	.
4E\	.	2B-\	.	.	.	4g/	.
4D\	.	.	.	.	.	4f/	.
1C	-di,	1c	.	.	.	1e	-di,
=21	=21	=21	=21	=21	=21	=21	=21
2r	.	2B-\	.	0.r	.	2f/	mi-
2E\	mi-	2c\	.	.	.	2e/	.
2D\	.	1d	.	.	.	2f/	.
2BB/	.	.	.	.	.	2g/	.
1C	-se-	1c	-se-	.	.	1e	-se-
=22	=22	=22	=22	=22	=22	=22	=22
1D	-re-	1A	-re-	1d	mun-	2f/	-re-
.	.	.	.	.	.	1a	.
1G	.	1B-	.	2e\	.	.	.
.	.	.	.	2d\	.	2g/	.
2F\	.	2A/	.	2r	.	2a/	-re
2E\	.	2G/	.	2c\	.	2r	.
=23	=23	=23	=23	=23	=23	=23	=23
2D\	.	2F/	.	2d\	.	0.r	.
1G	.	2G/	.	2B\	.	.	.
.	.	1D	-re	1A	.	.	.
2F#i\	.	.	.	.	.	.	.
[1G	-re	2r	.	1G	-di	.	.
.	.	[2d\	no-	.	.	.	.
=24	=24	=24	=24	=24	=24	=24	=24
1G]	.	2d\]	.	1B	mi-	1g	no-
.	.	2G/	.	.	.	.	.
2r	.	2A/	.	2c\	.	2f/	.
2.G\	no-	2B-\	.	2d\	.	1g	.
.	.	2c\	.	2e\	.	.	.
4E\	.	.	.	.	.	.	.
2F\	.	2A/	.	[2d\	.	2a/	.
=25	=25	=25	=25	=25	=25	=25	=25
1G	.	1G	.	2d\]	.	2b-\	.
.	.	.	.	1g	.	2g/	.
2E\	.	1r	.	.	.	1cc	.
2F\	.	.	.	2f\	-se-	.	.
2G\	.	1G	.	2d\	-re-	2b-\	.
2C/	.	.	.	2e\	-re	[2cc\	.
=26	=26	=26	=26	=26	=26	=26	=26
2r	.	1A	.	2f\	no-	2cc\]	.
2F\	.	.	.	2d\	.	2dd\	.
2G\	.	1G	.	1e	.	2b-\	.
2E\	.	.	.	.	.	2cc\	.
2F\	.	1F	.	2.d\	.	2a/	.
2D\	.	.	.	.	.	2f/	.
.	.	.	.	4B\	.	.	.
=27	=27	=27	=27	=27	=27	=27	=27
2C/	.	2G/	.	2c\	.	4.e/	.
.	.	.	.	.	.	8f/	.
2c\	.	2C/	.	1e	.	4g/	.
.	.	.	.	.	.	2a/	.
2A\	.	2c\	.	.	.	.	.
.	.	.	.	.	.	4f/	.
2F\	.	1d	.	4d\	.	1f	.
.	.	.	.	4c\	.	.	.
1G	.	.	.	1Bni	.	.	.
.	.	2B-i\	.	.	.	2e/	.
=28	=28	=28	=28	=28	=28	=28	=28
0.Fl	-bis.	0.Al	-bis.	0.cl	-bis.	0.fl	-bis.
!!LO:LB:i:g=z
=29||	=29||	=29||	=29||	=29||	=29||	=29||	=29||
*>B	*>B	*>B	*>B	*>B	*>B	*>B	*>B
*clefF4	*	*clefGv2	*	*clefGv2	*	*clefG2	*
*k[]	*	*k[b-]	*	*k[b-]	*	*k[b-]	*
*M2/1	*	*M2/1	*	*M2/1	*	*M2/1	*
*met(C|)	*	*met(C|)	*	*met(C)	*	*met(C|)	*
!!section: Agnus Dei II
!!!OMD: Agnus Dei II
*	*	*	*	*rscale:1/2	*	*	*
!	!	!	!	!LO:N:vis=0	!	!	!
0r	.	0r	.	[y0B-	Ag-	0f	Ag-
=30	=30	=30	=30	=30-	=30	=30	=30
0r	.	0r	.	0B-]yy	.	1g	.
.	.	.	.	.	.	1f	.
=31	=31	=31	=31	=31	=31	=31	=31
0r	.	0r	.	0c	.	2a/	.
.	.	.	.	.	.	2g/	.
.	.	.	.	.	.	2.a/	.
.	.	.	.	.	.	8g/L	.
.	.	.	.	.	.	8a/J	.
=32	=32	=32	=32	=32-	=32	=32	=32
0r	.	0r	.	0B-	.	2b-\	.
.	.	.	.	.	.	2f/	.
.	.	.	.	.	.	2g/	.
.	.	.	.	.	.	4f/	.
.	.	.	.	.	.	4e/	.
=33	=33	=33	=33	=33	=33	=33	=33
0r	.	0r	.	1d	.	1d	-nus
.	.	.	.	1c	-nus	2r	.
.	.	.	.	.	.	2g/	De-
=34	=34	=34	=34	=34-	=34	=34	=34
0r	.	0r	.	1.d	De-	2f/	.
.	.	.	.	.	.	1f	.
.	.	.	.	4c\L	.	2d/	.
.	.	.	.	4d\J	.	.	.
=35	=35	=35	=35	=35	=35	=35	=35
0r	.	0r	.	1e-	.	2c/	.
.	.	.	.	.	.	2e-i/	.
.	.	.	.	1B-	.	1d	.
=36	=36	=36	=36	=36-	=36	=36	=36
0r	.	0r	.	1c	.	1c	.
.	.	.	.	2B-\	.	2r	.
.	.	.	.	2A/	.	2f/	.
=37	=37	=37	=37	=37	=37	=37	=37
0r	.	0r	.	0G	.	2e-i/	.
.	.	.	.	.	.	1g	.
.	.	.	.	.	.	2f/	.
=38	=38	=38	=38	=38-	=38	=38	=38
0r	.	0r	.	1r	.	1d	.
.	.	.	.	1c	.	2r	.
.	.	.	.	.	.	[2g/	.
=39	=39	=39	=39	=39	=39	=39	=39
0r	.	0r	.	1B-	.	2g/]	.
.	.	.	.	.	.	2f/	.
!	!	!	!	!LO:N:vis=1	!	!	!
.	.	.	.	[y1B-	.	2.g/	.
.	.	.	.	.	.	8f/L	.
.	.	.	.	.	.	8e/J	.
=40	=40	=40	=40	=40-	=40	=40	=40
0r	.	0r	.	1B-]yy	.	2d/	.
.	.	.	.	.	.	2f/	.
.	.	.	.	1G	.	2g/	.
.	.	.	.	.	.	2b-\	.
=41	=41	=41	=41	=41	=41	=41	=41
0r	.	0r	.	1F	.	2.a/	.
.	.	.	.	.	.	8g/L	.
.	.	.	.	.	.	8f/J	.
.	.	.	.	1A	.	2e/	.
.	.	.	.	.	.	[2f/	.
=42	=42	=42	=42	=42-	=42	=42	=42
0r	.	0r	.	0G	.	2f/]	.
.	.	.	.	.	.	2d/	.
.	.	.	.	.	.	2.e/	.
.	.	.	.	.	.	8d/L	.
.	.	.	.	.	.	8e/J	.
=43	=43	=43	=43	=43	=43	=43	=43
0r	.	0r	.	0F	-i	2f/	.
.	.	.	.	.	.	1cc	.
.	.	.	.	.	.	2a/	.
=44	=44	=44	=44	=44-	=44	=44	=44
0r	.	0r	.	1r	.	1g	.
.	.	.	.	1B-	qui	1f	-i
=45	=45	=45	=45	=45	=45	=45	=45
0r	.	0r	.	1A	tol-	2r	.
.	.	.	.	.	.	2f/	qui
!	!	!	!	!LO:N:vis=2.	!	!	!
.	.	.	.	[y1c	.	2e/	.
.	.	.	.	.	.	[2g/	tol-
=46	=46	=46	=46	=46-	=46	=46	=46
0r	.	0r	.	2c\]yy	.	2g/]	.
.	.	.	.	4B-/L	.	2e/	.
.	.	.	.	4A/J	.	.	.
.	.	.	.	1B-	.	1d	.
=47	=47	=47	=47	=47	=47	=47	=47
0r	.	0r	.	0G	.	2r	.
.	.	.	.	.	.	2e/	.
.	.	.	.	.	.	2d/	.
.	.	.	.	.	.	[2g/	.
=48	=48	=48	=48	=48-	=48	=48	=48
0r	.	0r	.	1r	.	2g/]	.
.	.	.	.	.	.	2f/	.
.	.	.	.	[1c	.	2e/	.
.	.	.	.	.	.	2c/	.
=49	=49	=49	=49	=49	=49	=49	=49
0r	.	0r	.	1c]	.	2e/	.
.	.	.	.	.	.	2f/	.
.	.	.	.	1Bni	.	1d	.
=50	=50	=50	=50	=50-	=50	=50	=50
0r	.	0r	.	1.c	.	2.c/	-lis
.	.	.	.	.	.	4d/	.
.	.	.	.	.	.	4e/	.
.	.	.	.	.	.	4f/	.
.	.	.	.	4B-/L	.	[2g/	pec-
.	.	.	.	4A/J	.	.	.
=51	=51	=51	=51	=51	=51	=51	=51
0r	.	0r	.	1G	-lis	2g/]	.
.	.	.	.	.	.	2e/	.
.	.	.	.	1B-	pec-	2d/	.
.	.	.	.	.	.	[2g/	-ca-
=52	=52	=52	=52	=52-	=52	=52	=52
0r	.	0r	.	1c	-ca-	2g/]	.
.	.	.	.	.	.	2f/	.
.	.	.	.	1e-	.	2.e-/	.
.	.	.	.	.	.	4c/	.
=53	=53	=53	=53	=53	=53	=53	=53
0r	.	0r	.	1.d	.	1B-	-ta
.	.	.	.	.	.	2r	.
.	.	.	.	4c\L	.	[2f/	mun-
.	.	.	.	4B-\J	.	.	.
=54	=54	=54	=54	=54-	=54	=54	=54
0r	.	0r	.	1A	-ta	2f/]	.
.	.	.	.	.	.	2e/	.
.	.	.	.	[1B-	mun-	2d/	.
.	.	.	.	.	.	[2g/	.
=55	=55	=55	=55	=55	=55	=55	=55
0r	.	0r	.	1B-]	.	2g/]	.
.	.	.	.	.	.	2f/	.
.	.	.	.	1G	.	2e/	.
.	.	.	.	.	.	2d/	.
=56	=56	=56	=56	=56-	=56	=56	=56
0r	.	0r	.	1.A	.	2f/	.
.	.	.	.	.	.	4e/	.
.	.	.	.	.	.	4d/	.
.	.	.	.	.	.	1c	.
.	.	.	.	4G/	.	.	.
.	.	.	.	4A/	.	.	.
=57	=57	=57	=57	=57	=57	=57	=57
0r	.	0r	.	1B-	.	2B-/	.
.	.	.	.	.	.	2.f/	.
!	!	!	!	!LO:N:vis=1	!	!	!
.	.	.	.	[y1f	.	.	.
.	.	.	.	.	.	4g/	.
.	.	.	.	.	.	[2a/	.
=58	=58	=58	=58	=58-	=58	=58	=58
0r	.	0r	.	1f]yy	.	2a/]	.
.	.	.	.	.	.	1f	.
.	.	.	.	1d	.	.	.
.	.	.	.	.	.	2b-\	.
=59	=59	=59	=59	=59	=59	=59	=59
0r	.	0r	.	0c	.	2cc\	.
.	.	.	.	.	.	2g/	.
.	.	.	.	.	.	2a/	.
.	.	.	.	.	.	4g/	.
.	.	.	.	.	.	4a/	.
=60	=60	=60	=60	=60-	=60	=60	=60
0r	.	0r	.	0B-	-di	2.b-\	.
.	.	.	.	.	.	8a/L	.
.	.	.	.	.	.	8g/J	.
.	.	.	.	.	.	2.f/	.
.	.	.	.	.	.	4e/	.
=61	=61	=61	=61	=61	=61	=61	=61
0r	.	0r	.	1r	.	2f/	.
.	.	.	.	.	.	2.g/	.
.	.	.	.	1B-	mi-	.	.
.	.	.	.	.	.	4f/	.
.	.	.	.	.	.	4e/	.
.	.	.	.	.	.	4d/	.
=62	=62	=62	=62	=62-	=62	=62	=62
0r	.	0r	.	1A	-se-	1c	-di
.	.	.	.	[1c	-re-	2r	.
.	.	.	.	.	.	[2e/	mi-
=63	=63	=63	=63	=63	=63	=63	=63
0r	.	0r	.	1c]	.	2e/]	.
.	.	.	.	.	.	2c/	.
.	.	.	.	1A	.	2.e/	.
.	.	.	.	.	.	4f/	-se-
=64	=64	=64	=64	=64-	=64	=64	=64
0r	.	0r	.	0G	-re	2.g/	-re-
.	.	.	.	.	.	8f/L	.
.	.	.	.	.	.	8e/J	.
.	.	.	.	.	.	1d	.
=65	=65	=65	=65	=65	=65	=65	=65
0r	.	0r	.	1r	.	1c	-re
.	.	.	.	1A	no-	2r	.
.	.	.	.	.	.	2f/	no-
=66	=66	=66	=66	=66-	=66	=66	=66
0r	.	0r	.	1G	.	2g/	.
.	.	.	.	.	.	2b-\	.
.	.	.	.	[1c	.	2a/	.
.	.	.	.	.	.	[2g/	.
=67	=67	=67	=67	=67	=67	=67	=67
0r	.	0r	.	1c]	.	2g/]	.
.	.	.	.	.	.	2e/	.
.	.	.	.	1B-	.	1d	.
=68	=68	=68	=68	=68-	=68	=68	=68
0r	.	0r	.	1A	.	2e/	.
.	.	.	.	.	.	1f	.
.	.	.	.	1F	.	.	.
.	.	.	.	.	.	2d/	.
=69	=69	=69	=69	=69	=69	=69	=69
0r	.	0r	.	1A	.	2c/	.
.	.	.	.	.	.	2.f/	.
.	.	.	.	1B-	.	.	.
.	.	.	.	.	.	8e/L	.
.	.	.	.	.	.	8f/J	.
.	.	.	.	.	.	[2g/	.
=70	=70	=70	=70	=70-	=70	=70	=70
0r	.	0r	.	0G	.	4g/]	.
.	.	.	.	.	.	4f/	.
.	.	.	.	.	.	4e/	.
.	.	.	.	.	.	4d/	.
.	.	.	.	.	.	2.e/	.
.	.	.	.	.	.	8d/L	.
.	.	.	.	.	.	8e/J	.
=71	=71	=71	=71	=71	=71	=71	=71
0r	.	0r	.	0Fl	-bis.	0fl	-bis.
!!LO:LB:i:g=z
*	*	*	*	*rscale:1	*	*	*
=72||	=72||	=72||	=72||	=72||	=72||	=72||	=72||
*>C	*>C	*>C	*>C	*>C	*>C	*>C	*>C
*clefF4	*	*clefGv2	*	*clefGv2	*	*clefG2	*
*k[b-]	*	*k[b-]	*	*k[b-]	*	*k[b-]	*
*M3/1	*	*M3/1	*	*M3/1	*	*M3/1	*
*met(O)	*	*met(O)	*	*met(O)	*	*met(O)	*
!!section: Agnus Dei III
!!!OMD: Agnus Dei III
!LO:TX:X=-40:Z=8:t=Dux	!	!LO:TX:X=-40:Z=8:t=Comes	!	!LO:TX:X=-40:Z=8:t=Dux	!	!LO:TX:X=-40:Z=8:t=Comes	!
1.F	Ag-	0.r	.	1.f	Ag-	0.r	.
2G\	.	.	.	2d\	.	.	.
1A	.	.	.	2c\	.	.	.
.	.	.	.	[2f\	.	.	.
=73	=73	=73	=73	=73	=73	=73	=73
2F\	.	0.r	.	4f\]	.	0.r	.
.	.	.	.	4d\	.	.	.
2G\	.	.	.	2.e-\	.	.	.
2A\	.	.	.	.	.	.	.
.	.	.	.	4d\	.	.	.
1B-	.	.	.	2B-\	.	.	.
.	.	.	.	1c	.	.	.
2A\	.	.	.	.	.	.	.
=74	=74	=74	=74	=74	=74	=74	=74
2.B-\	.	0.r	.	1B-	-nus	0.r	.
4A\	.	.	.	.	.	.	.
2G\	.	.	.	1r	.	.	.
2F\	.	.	.	.	.	.	.
1E	-nus	.	.	1B-	De-	.	.
=75	=75	=75	=75	=75	=75	=75	=75
1F	De-	0.r	.	1A	.	0.r	.
0BB-	.	.	.	2B-\	.	.	.
.	.	.	.	1d	.	.	.
.	.	.	.	4c\	.	.	.
.	.	.	.	4B-\	.	.	.
=76	=76	=76	=76	=76	=76	=76	=76
1F	.	0.r	.	2.A/	.	0.r	.
.	.	.	.	4B-\	.	.	.
2E\	.	.	.	1c	.	.	.
1F	.	.	.	.	.	.	.
.	.	.	.	2d\	.	.	.
2D\	.	.	.	2f\	.	.	.
=77	=77	=77	=77	=77	=77	=77	=77
1C	.	0.r	.	2e\	.	0.r	.
.	.	.	.	2.g\	.	.	.
1F	.	.	.	.	.	.	.
.	.	.	.	4f\	.	.	.
.	.	.	.	1f	.	.	.
1G	.	.	.	.	.	.	.
.	.	.	.	2e\	.	.	.
=78	=78	=78	=78	=78	=78	=78	=78
0F	-i,	1.c	Ag-	1f	-i	1.cc	Ag-
.	.	.	.	1r	.	.	.
.	.	2d\	.	.	.	2a/	.
2E\	Ag-	1e	.	1g	Ag-	2g/	.
[2C/	.	.	.	.	.	[2cc\	.
=79	=79	=79	=79	=79	=79	=79	=79
2C/]	.	2c\	.	2e\	.	4cc\]	.
.	.	.	.	.	.	4a/	.
2BB-/	.	2d\	.	2d\	.	2.b-\	.
2C/	.	2e\	.	2c\	.	.	.
.	.	.	.	.	.	4a/	.
2D\	.	1f	.	2B-\	.	2f/	.
1C	.	.	.	1c	.	1g	.
.	.	2e\	.	.	.	.	.
=80	=80	=80	=80	=80	=80	=80	=80
2r	.	2.f\	.	2.d\	.	1f	-nus
1F	.	.	.	.	.	.	.
.	.	4e\	.	8c\L	.	.	.
.	.	.	.	8B-\J	.	.	.
.	.	2d\	.	2A/	.	1r	.
2E\	.	2c\	.	2G/	.	.	.
1D	.	1B-	-nus	1F	.	1f	De-
=81	=81	=81	=81	=81	=81	=81	=81
1C	-nus	1c	De-	1G	.	1e	.
2r	.	0F	.	1.A	.	2f/	.
1F	De-	.	.	.	.	1a	.
2D\	.	.	.	2B-\	.	4g/	.
.	.	.	.	.	.	4f/	.
=82	=82	=82	=82	=82	=82	=82	=82
2.C/	.	1c	.	2c\	.	2.e/	.
.	.	.	.	2A/	.	.	.
4D\	.	.	.	.	.	4f/	.
1E	.	2B-\	.	1G	-nus	1g	.
.	.	1c	.	.	.	.	.
1C	-i	.	.	2r	.	2a/	.
.	.	2A/	.	2c\	De-	2cc\	.
=83	=83	=83	=83	=83	=83	=83	=83
1r	.	1G	.	2d\	.	2b-\	.
.	.	.	.	2B-\	.	2.dd\	.
1r	.	1c	.	2c\	.	.	.
.	.	.	.	.	.	4cc\	.
.	.	.	.	2A/	.	1cc	.
2r	.	1d	.	1G	.	.	.
2G\	qui	.	.	.	.	2bni\	.
=84	=84	=84	=84	=84	=84	=84	=84
2.A\	tol-	0c	-i,	2c\	.	1cc	-i
.	.	.	.	2d\	.	.	.
4B-\	.	.	.	.	.	.	.
2c\	.	.	.	1e	.	1r	.
2A\	.	.	.	.	.	.	.
2.B-\	.	2B-\	qui	1d	.	1dd	qui
.	.	[2G/	tol-	.	.	.	.
4c\	.	.	.	.	.	.	.
=85	=85	=85	=85	=85	=85	=85	=85
2d\	.	2G/]	.	1d	-i	2b-\	tol-
2.d\	.	2F/	.	.	.	2a/	.
.	.	2G/	.	2r	.	2g/	.
4c\	.	.	.	.	.	.	.
2A\	.	2A/	.	2c\	qui	2f/	.
1B-	.	1G	.	2.d\	tol-	1g	.
.	.	.	.	4e\	.	.	.
=86	=86	=86	=86	=86	=86	=86	=86
1.A	-lis	2r	.	2.f\	.	2.a/	.
.	.	1c	.	.	.	.	.
.	.	.	.	8e\L	.	8g/L	.
.	.	.	.	8d\J	.	8f/J	.
.	.	.	.	2c\	.	2e/	.
1.r	.	2B-\	.	2d\	.	2d/	.
.	.	1A	.	2e\	.	1c	.
.	.	.	.	2c\	.	.	.
=87	=87	=87	=87	=87	=87	=87	=87
1G	pec-	1G	-lis	4Bni\	.	1d	.
.	.	.	.	2Bni\	.	.	.
.	.	.	.	4A/	.	.	.
1C	-ca-	2r	.	1c	-lis	1.e	.
.	.	1c	pec-	.	.	.	.
2r	.	.	.	1r	.	.	.
2D\	.	2A/	.	.	.	2f/	.
=88	=88	=88	=88	=88	=88	=88	=88
2E\	.	2.G/	-ca-	1c	pec-	2g/	.
2C/	.	.	.	.	.	2e/	.
.	.	4A/	.	.	.	.	.
1BB-	.	1B-	.	2d\	.	1d	.
.	.	.	.	2f\	.	.	.
1C	.	1G	.	2e\	.	2r	.
.	.	.	.	2c\	.	2g/	.
=89	=89	=89	=89	=89	=89	=89	=89
1F	.	1r	.	1d	.	2a/	.
.	.	.	.	.	.	2f/	.
2.E\	.	1.r	.	2G/	.	2g/	.
.	.	.	.	1c	.	2e/	.
4F\	.	.	.	.	.	.	.
1G	.	.	.	.	.	1d	.
.	.	2d\	.	2B-\	.	.	.
=90	=90	=90	=90	=90	=90	=90	=90
1C	.	2.e\	.	2c\	.	2g/	.
.	.	.	.	2A/	.	2a/	.
.	.	4f\	.	.	.	.	.
2r	.	2g\	.	1G	.	1b-	.
2G\	.	2e\	.	.	.	.	.
2A\	.	2.f\	.	2r	.	1a	.
[2F\	.	.	.	[2c\	.	.	.
.	.	4g\	.	.	.	.	.
=91	=91	=91	=91	=91	=91	=91	=91
2F\]	.	2a\	.	2c\]	.	1a	-lis
2D\	.	2.a\	.	2d\	.	.	.
1C	.	.	.	1e	.	2r	.
.	.	4g\	.	.	.	.	.
.	.	2e\	.	.	.	2g/	pec-
2.F\	.	1f	.	1d	.	2.a/	-ca-
4G\	.	.	.	.	.	4b-\	.
=92	=92	=92	=92	=92	=92	=92	=92
2.A\	.	1.e	-ta	2.c\	.	2.cc\	.
4G\	.	.	.	4d\	.	8b-/L	.
.	.	.	.	.	.	8a/J	.
2G\	.	.	.	2e\	.	2g/	.
2F\	.	1.r	.	1d	.	2a/	.
1E	.	.	.	.	.	2b-\	.
.	.	.	.	2c\	.	2g/	.
=93	=93	=93	=93	=93	=93	=93	=93
1D	-ta	1d	mun-	1.d	-ca-	4f#i/	.
.	.	.	.	.	.	2f#i/	.
.	.	.	.	.	.	4e/	.
2r	.	1G	.	.	.	1g	-ta
1G	mun-	.	.	2B-\	.	.	.
.	.	2r	.	1A	.	1r	.
2F\	.	2A/	.	.	.	.	.
=94	=94	=94	=94	=94	=94	=94	=94
2G\	.	2B-\	.	1G	-ta	1g	mun-
2B-\	.	2G/	.	.	.	.	.
1A	.	1F	.	1r	.	2a/	.
.	.	.	.	.	.	2cc\	.
1G	.	1G	.	1B-	mun-	2b-\	.
.	.	.	.	.	.	2g/	.
=95	=95	=95	=95	=95	=95	=95	=95
2r	.	1c	.	1A	.	1a	.
2F\	.	.	.	.	.	.	.
2G\	.	2.B-\	.	1G	.	2d/	.
2E\	.	.	.	.	.	1g	.
.	.	4c\	.	.	.	.	.
1D	.	1d	.	2A/	.	.	.
.	.	.	.	2B-\	.	2f/	.
=96	=96	=96	=96	=96	=96	=96	=96
2.E\	.	1G	-di,	2G/	.	2g/	.
.	.	.	.	1c	.	2e/	.
4F\	.	.	.	.	.	.	.
1G	.	2r	.	.	.	1d	-di,
.	.	2d\	do-	2Bni\	.	.	.
1C	-di,	2e\	.	1c	-di	2r	.
.	.	[2c\	.	.	.	[2g/	do-
=97	=97	=97	=97	=97	=97	=97	=97
1r	.	2c\]	.	2r	.	2g/]	.
.	.	2A/	.	2c\	do-	2a/	.
1G	do-	1G	.	2d\	.	1b-	.
.	.	.	.	2e\	.	.	.
2.F\	.	2.c\	.	1f	.	1a	.
4E\	.	4d\	.	.	.	.	.
=98	=98	=98	=98	=98	=98	=98	=98
1C	.	2.e\	.	2e\	.	2.g/	.
.	.	.	.	2c\	-na	.	.
.	.	4d\	.	.	.	4a/	.
2BB-/	.	2d\	.	2d\	no-	2b-\	.
2C/	.	2c\	.	2e\	.	1a	.
2D\	.	1B-	.	2f\	.	.	.
2E\	.	.	.	2e\	.	2g/	-na
=99	=99	=99	=99	=99	=99	=99	=99
1F	.	1A	-na	2c\	.	1.a	no-
.	.	.	.	2.d\	.	.	.
2D\	.	2r	.	.	.	.	.
.	.	.	.	4B-\	.	.	.
2BB-/	.	1d	no-	1B-	.	2f/	.
1C	-na	.	.	.	.	1e	.
.	.	2c\	.	2A/	.	.	.
=100	=100	=100	=100	=100	=100	=100	=100
1BB-	no-	2d\	.	1B-	.	1d	-bis
.	.	2f\	.	.	.	.	.
1C	.	1e	.	2G/	.	1r	.
.	.	.	.	2c\	.	.	.
1D	.	1d	.	4Bni\	.	1f	pa-
.	.	.	.	2Bni\	.	.	.
.	.	.	.	4A/	.	.	.
=101	=101	=101	=101	=101	=101	=101	=101
1C	.	2r	.	2c\	.	1e	.
.	.	2c\	.	2A/	.	.	.
1G	-bis	2d\	.	1B-	-bis	1d	.
.	.	2B-\	.	.	.	.	.
2r	.	1A	.	2c\	pa-	2e/	.
[2D\	pa-	.	.	[2d\	.	2f/	.
=102	=102	=102	=102	=102	=102	=102	=102
2D\]	.	2.B-\	.	4d\]	.	2d/	.
.	.	.	.	4B-\	.	.	.
2E\	.	.	.	2G/	.	1g	.
.	.	4c\	.	.	.	.	.
1D	.	1d	.	1A	.	.	.
.	.	.	.	.	.	2f#i/	.
1r	.	1G	-bis	2.B-\	.	1g	.
.	.	.	.	4c\	.	.	.
=103	=103	=103	=103	=103	=103	=103	=103
1G	.	1r	.	1d	.	2r	.
.	.	.	.	.	.	2g/	.
2F\	.	1d	pa-	2r	.	2a/	.
2G\	.	.	.	2d\	.	2b-\	.
1C	.	2.c\	.	2e\	.	1cc	.
.	.	.	.	2c\	.	.	.
.	.	4B-\	.	.	.	.	.
=104	=104	=104	=104	=104	=104	=104	=104
2.G\	.	1G	.	0d	.	2b-\	.
.	.	.	.	.	.	2g/	.
4F\	.	.	.	.	.	.	.
2D\	.	2F/	.	.	.	2a/	.
2G\	.	2G/	.	.	.	2b-\	.
2F\	.	2A/	.	2r	.	2cc\	.
2G\	.	2B-\	.	2d\	.	2b-\	.
=105	=105	=105	=105	=105	=105	=105	=105
2C/	.	1c	.	2e\	.	2g/	.
1F	.	.	.	2.c\	.	2.a/	.
.	.	2A/	.	.	.	.	.
.	.	.	.	4A/	.	4f/	.
2D\	.	2F/	.	2B-\	.	1f	.
1C	.	1G	.	1c	.	.	.
.	.	.	.	.	.	2e/	.
=106	=106	=106	=106	=106	=106	=106	=106
0.Fl	-cem.	0.Fl	-cem.	0.cl	-cem.	0.fl	-cem.
==	==	==	==	==	==	==	==
*-	*-	*-	*-	*-	*-	*-	*-
!!!RDF**kern: l=long note in original notation
!!!RDF**kern: i=editorial accidental
!!!RDF**kern: V=start of tuplet marker
!!!RDF**kern: Z=end of tuplet marker
!!!ENC:	Chris Gage 08-20-2012
!!!END:	2014/05/13/
!!!EED:	Jesse Rodin
!!!EEV:	2014/05/14/
!!!ONB:	Translated from MusicXML and edited on 2014/05/14/ by Craig Sapp
!!muse2ps: T^@{OPR}^u^@{ONM}{. }@{OTL}^C^@{COM}^i2I150v85,85,85,130c150
